X: 21025
T: Jump At The Sun
R: jig
M: 6/8
K: Eminor
|:_E|EBB _B2=B|EBE _B2=B|EBB EBB|CBA GAF|
EBB _B2=B|EBE _B2=B|EBB cBA|GAF E2:|
|:d|eBe gfe|fBf agf|eBB gfe|fBB _B2 =B|
e2 B g2 e|~f3 a2 f|eBB cBA|GAF E2:|

